X:322
T: "Gottesgericht"
N: Z1002
O: Europa, Mitteleuropa, Deutschland, Niederrhein
R: Romanze, Ballade, Frankfurter Sage
M: 6/8
L: 1/16
K: G
D2 | G2F2G2A2G2A2 | _B2G2z2A6 | _B4c2d4
dc | _B2A2G2A2G2F2 | G4z6
D2 | G2F2G2A2G2A2 | _B2G2z2A6 | _B4c2d4
dc | _B2A2G2F2G2A2 | G6z4

